X: 15
T: Forkert Skotsk
B:[[Notböcker/Melodier til gamle danske Almuedanse for Violin solo]]
O:Danmark
Z:Søren Bak Vestergaard
M: 2/4
L: 1/8
K: Bb
dc|B2 A2|B2 ed|c2 B2|c2 fe|d2 c2|d2 cB|(AB) cA|B2:|\
|:!3!f2|fe de|f2 !2!b2|!1!abc'a|bc'd'b|fede|f2 b2|abc'a|b2:|

